X:105
T: Jim Droney's
S: Chris Droney
Z: B.Black
R: jig
M: 6/8
L: 1/8
K: G
D | GAB D2 E | GAB AGE | GAB D2 E | GAG GED |
GAB D2 E | GAB d2 e | dBB AGA | BGF G2 :|
e | dBB dBB | dBB A2 e | dBB dBA | GAG GED |
dBB dBB | dBB A2 e | dBB AGA | BGF G2 :|
